X: 43243
T: Wolf In The Butter, The
R: jig
M: 6/8
K: Bdorian
fff f2e|f3B3|fff f2e|f2g a3|fff f2e|f3B3|
[1e2fe2c|A2B cBA:|2 f2d edc|B6||
|:BBB B2A|B2cd3|ccc c2B|c2de3|
fff f2e|f3B3|1 e2fe2c|A2B cBA:|2 f2d edc|B6||

